X: 10951
T: The BOLD DRAGOON
Q: "Allegretto"
%R: march
B: "Edinburgh Repository of Music" v.1 p.95 #1
F: http://digital.nls.uk/special-collections-of-printed-music/pageturner.cfm?id=87776133
Z: 2015 John Chambers <jc:trillian.mit.edu>
M: 2/4
L: 1/8
K: D
A |\
Addd | d2df | {f}e>def | d2d>e |\
f>gfe | eddB | AFdF | {F}E2A>G |\
F>GFE | F>EFA | D>ED>F |
AF F/<Hd/ d/e/ |\
f>d e>c | d2d>c | B2B2 | BAFA |\
d2DF | A2A2 | B>cdB | A>F D |]

%%sep 2 1 500
%%sep 1 1 500

